svg/sport/toxophily_fill.svg

<?xml version="1.0" encoding="UTF-8"?>
<svg width="24px" height="24px" viewBox="0 0 24 24" version="1.1" xmlns="http://www.w3.org/2000/svg" xmlns:xlink="http://www.w3.org/1999/xlink">
    <title>toxophily_fill</title>
    <g id="Icon" stroke="none" stroke-width="1" fill="none" fill-rule="evenodd">
        <g id="Sport" transform="translate(-864.000000, -48.000000)">
            <g id="toxophily_fill" transform="translate(864.000000, 48.000000)">
                <path d="M24,0 L24,24 L0,24 L0,0 L24,0 Z M12.5935,23.2578 L12.5819,23.2595 L12.5109,23.295 L12.4919,23.2987 L12.4767,23.295 L12.4057,23.2595 C12.3958,23.2564 12.387,23.259 12.3821,23.2649 L12.378,23.2758 L12.3609,23.7031 L12.3659,23.7235 L12.3769,23.7357 L12.4805,23.8097 L12.4953,23.8136 L12.5071,23.8097 L12.6107,23.7357 L12.6233,23.7197 L12.6267,23.7031 L12.6096,23.2758 C12.6076,23.2657 12.601,23.2593 12.5935,23.2578 Z M12.8584,23.1453 L12.8445,23.1473 L12.6598,23.2397 L12.6499,23.2499 L12.6472,23.2611 L12.6651,23.6906 L12.6699,23.7034 L12.6784,23.7105 L12.8793,23.8032 C12.8914,23.8069 12.9022,23.803 12.9078,23.7952 L12.9118,23.7812 L12.8777,23.1665 C12.8753,23.1546 12.8674,23.147 12.8584,23.1453 Z M12.143,23.1473 C12.1332,23.1424 12.1222,23.1453 12.1156,23.1526 L12.1099,23.1665 L12.0758,23.7812 C12.0751,23.7927 12.0828,23.8019 12.0926,23.8046 L12.1083,23.8032 L12.3092,23.7105 L12.3186,23.7024 L12.3225,23.6906 L12.3404,23.2611 L12.3372,23.2485 L12.3278,23.2397 L12.143,23.1473 Z" id="MingCute" fill-rule="nonzero"></path>
                <path d="M11.0607,1.93934 C10.4749,1.35355 9.52513,1.35355 8.93934,1.93934 C8.35355,2.52513 8.35355,3.47487 8.93934,4.06066 L9.09557,4.21689 L5.16863,10.4999975 L5,10.4999975 C4.17157,10.4999975 3.5,11.1716 3.5,11.9999975 C3.5,12.8284 4.17157,13.4999975 5,13.4999975 L5.16863,13.4999975 L9.09557,19.7831 L8.93934,19.9393 C8.35355,20.5251 8.35355,21.4749 8.93934,22.0607 C9.52513,22.6464 10.4749,22.6464 11.0607,22.0607 L11.9556,21.1657 L13.6901,20.0094 C14.7078,19.3309 15.4703,18.3326 15.857,17.1723 L17.0811,13.4999975 L17.5857,13.4999975 C17.7251,13.8938 18.0258,14.2201 18.426,14.3858 C18.9865,14.618 19.6317,14.4897 20.0607,14.0607 L21.0607,13.0607 C21.6465,12.4749 21.6465,11.5251 21.0607,10.9393 L20.0607,9.93934 C19.6317,9.51034 18.9865,9.38201 18.426,9.61418 C18.0258,9.77994 17.7251,10.1062 17.5857,10.4999975 L17.0811,10.4999975 L15.857,6.82766 C15.4703,5.66736 14.7078,4.66907 13.6901,3.99064 L11.9556,2.83431 L11.0607,1.93934 Z M8.70637,10.5 L11.4533,6.10496 L12.026,6.48679 C12.4886,6.79517 12.8352,7.24893 13.011,7.77634 L13.9189,10.5 L8.70637,10.5 Z M11.4533,17.895 L8.70637,13.5 L13.9189,13.5 L13.011,16.2237 C12.8352,16.7511 12.4886,17.2048 12.026,17.5132 L11.4533,17.895 Z" id="形状" fill="#09244B"></path>
            </g>
        </g>
    </g>
</svg>

<svg xmlns="http://www.w3.org/2000/svg" width="24" height="24"><g fill="none" fill-rule="evenodd"><path d="M24 0v24H0V0h24ZM12.594 23.258l-.012.002-.071.035-.02.004-.014-.004-.071-.036c-.01-.003-.019 0-.024.006l-.004.01-.017.428.005.02.01.013.104.074.015.004.012-.004.104-.074.012-.016.004-.017-.017-.427c-.002-.01-.009-.017-.016-.018Zm.264-.113-.014.002-.184.093-.01.01-.003.011.018.43.005.012.008.008.201.092c.012.004.023 0 .029-.008l.004-.014-.034-.614c-.003-.012-.01-.02-.02-.022Zm-.715.002a.023.023 0 0 0-.027.006l-.006.014-.034.614c0 .012.007.02.017.024l.015-.002.201-.093.01-.008.003-.011.018-.43-.003-.012-.01-.01-.184-.092Z"/><path fill="#09244B" d="M11.06 1.94a1.5 1.5 0 0 0-2.12 2.12l.156.157L5.169 10.5H5a1.5 1.5 0 0 0 0 3h.169l3.927 6.283-.157.156a1.5 1.5 0 0 0 2.122 2.122l.895-.895 1.734-1.157a5.5 5.5 0 0 0 2.167-2.837l1.224-3.672h.505a1.5 1.5 0 0 0 2.475.56l1-1a1.5 1.5 0 0 0 0-2.12l-1-1a1.5 1.5 0 0 0-2.475.56h-.505l-1.224-3.672A5.5 5.5 0 0 0 13.69 3.99l-1.734-1.157-.895-.895ZM8.707 10.5l2.747-4.395.573.382a2.5 2.5 0 0 1 .985 1.29l.908 2.723H8.706Zm2.747 7.395L8.706 13.5h5.213l-.908 2.724a2.5 2.5 0 0 1-.985 1.29l-.573.381Z"/></g></svg>
